static/logos/national_geographic_logo.svg

<svg width="165" height="48" viewBox="0 0 165 48" fill="none" xmlns="http://www.w3.org/2000/svg">
<g clip-path="url(#clip0)">
<path d="M0 48V0H33.8324V48H0ZM28.9367 43.1646V4.83506H4.87179V43.1646H28.9367Z" fill="#FFD520"/>
<path d="M56.3125 21.5296H54.2193C51.4761 17.6895 48.7441 13.873 46.0244 9.55315V21.5296H43.6597V4.8233H45.7525C48.4962 8.63985 51.2277 12.433 53.9238 16.7297V4.8233H56.2889V21.5296H56.3125Z" fill="white"/>
<path d="M61.7996 14.9268C62.4736 12.7375 63.1477 10.7004 63.7507 8.12496C64.4248 10.7005 65.028 12.7375 65.6547 14.9268H61.7996ZM62.911 4.83506L57.0692 21.5296H59.5764L61.0426 16.9755H66.1276L67.4518 21.5296H70.6802L65.3469 4.8233H62.9822L62.911 4.83506Z" fill="white"/>
<path d="M73.4239 21.5296V7.07118H68.9892V4.83505H80.7202V7.07118H76.2858V21.5296H73.3885H73.4239V21.5296Z" fill="white"/>
<path d="M81.7017 21.5296V4.8233H84.5752V21.5296H81.7017Z" fill="white"/>
<path d="M93.4798 19.3989C90.4644 19.3989 89.4 16.1091 89.4 12.913C89.4 9.71682 90.5825 6.89541 93.4798 6.89541C96.3772 6.89541 97.5479 9.83411 97.5479 12.913C97.5479 15.9922 96.4953 19.3989 93.4798 19.3989ZM93.4798 21.7403C97.8906 21.7403 100.634 17.8537 100.634 12.8663C100.634 8.18344 97.5949 4.46049 93.4798 4.46049C89.3647 4.46049 86.3253 8.18344 86.3253 12.8663C86.3253 17.9236 89.0691 21.8224 93.4798 21.8224V21.7403Z" fill="white"/>
<path d="M115.014 21.5296H112.921C110.177 17.6895 107.446 13.873 104.726 9.55315V21.5296H102.361V4.8233H104.454C107.197 8.63985 109.929 12.433 112.625 16.7297V4.8233H114.99V21.5296H115.014Z" fill="white"/>
<path d="M120.536 14.9268C121.21 12.7375 121.885 10.7004 122.487 8.12496C123.161 10.7005 123.764 12.7375 124.392 14.9268H120.489H120.536ZM121.648 4.83505L115.818 21.5414H118.325L119.791 16.9871H124.876L126.201 21.5414H129.429L124.048 4.83505H121.683H121.648Z" fill="white"/>
<path d="M130.268 4.8233H133.142V19.2817H138.854V21.5296H130.268V4.8233Z" fill="white"/>
<path d="M54.5267 35.5083V42.4037C53.0051 43.0398 51.377 43.3891 49.7259 43.434C44.759 43.434 41.625 39.6174 41.625 34.7005C41.625 30.1461 44.759 26.1543 49.8202 26.1543C51.2846 26.1623 52.7115 26.6115 53.9119 27.442L52.9777 29.4205C52.0433 28.8674 50.9797 28.565 49.8915 28.5427C46.8049 28.5427 44.7117 30.9544 44.7117 34.7474C44.7117 38.5405 47.0766 41.046 49.6076 41.046C50.3053 41.0758 50.9998 40.9349 51.6295 40.6361V35.5083H54.5267V35.5083Z" fill="white"/>
<path d="M64.8742 28.6826H60.0494V33.2604H64.7795V35.5083H60.0494V40.9053H65.7375V43.153H57.1524V26.4235H64.8626V28.6712L64.8742 28.6826Z" fill="white"/>
<path d="M73.7905 41.0458C70.7751 41.0458 69.7226 37.7559 69.7226 34.5601C69.7226 31.3639 70.9051 28.5423 73.7905 28.5423C76.676 28.5423 77.8704 31.4809 77.8704 34.5601C77.8703 37.6389 76.806 41.0458 73.7905 41.0458ZM73.7905 43.3873C78.2012 43.3873 80.9449 39.5003 80.9449 34.5132C80.9449 29.8304 77.9057 26.1074 73.7905 26.1074C69.6755 26.1074 66.6364 29.8304 66.6364 34.5132C66.6364 39.5472 69.3797 43.434 73.7905 43.434V43.3873V43.3873Z" fill="white"/>
<path d="M94.8397 35.5083V42.4037C93.318 43.0398 91.6897 43.3891 90.0385 43.434C85.0718 43.434 81.938 39.6174 81.938 34.7005C81.938 30.1461 85.0718 26.1543 90.1332 26.1543C91.5974 26.1623 93.0243 26.6115 94.2247 27.442L93.2907 29.4205C92.3561 28.8674 91.2923 28.565 90.204 28.5427C87.1177 28.5427 85.0245 30.9544 85.0245 34.7474C85.0245 38.5405 87.3896 41.046 89.9202 41.046C90.618 41.0758 91.3125 40.9349 91.9424 40.6361V35.5083H94.8397V35.5083Z" fill="white"/>
<path d="M100.386 28.6827H101.663C103.008 28.5508 104.207 29.5236 104.34 30.8557C104.357 31.0287 104.356 31.203 104.336 31.3755C104.548 32.9849 103.403 34.4601 101.778 34.6706C101.716 34.6785 101.654 34.6847 101.592 34.6888L100.409 34.759V28.6711L100.386 28.6827ZM107.718 43.1416L104.371 36.2225C106.19 35.2228 107.311 33.3183 107.292 31.2586C107.292 28.0155 105.293 26.4353 102.065 26.4353H97.5595V43.1416H100.457V36.8427H101.758L104.477 43.1416H107.777H107.718Z" fill="white"/>
<path d="M112.483 36.5386C113.157 34.3493 113.831 32.3122 114.435 29.7364C115.109 32.3122 115.712 34.3374 116.338 36.5386H112.436H112.483ZM113.595 26.4235L107.765 43.1297H110.284L111.75 38.5753H116.835L118.159 43.1297H121.388L116.007 26.4235H113.642H113.595V26.4235Z" fill="white"/>
<path d="M126.839 26.4235H122.334V43.1297H125.231V36.8427H126.532C129.575 36.863 132.059 34.4369 132.079 31.4239C132.08 31.3686 132.079 31.3134 132.078 31.2584C132.031 28.0154 130.032 26.4235 126.839 26.4235ZM126.425 34.6769L125.243 34.7471V28.6712H126.544C127.89 28.5525 129.079 29.5368 129.199 30.8698C129.214 31.0344 129.212 31.1999 129.193 31.3637C129.41 32.979 128.264 34.4629 126.633 34.6783C126.552 34.6889 126.471 34.6963 126.39 34.7005L126.425 34.6769Z" fill="white"/>
<path d="M145.441 43.1416H142.543V35.0986H136.536V43.1416H133.663V26.4235H136.536V32.8388H142.543V26.47H145.441V43.1297V43.1416Z" fill="white"/>
<path d="M148.208 43.1416V26.4235H151.081V43.1297H148.208V43.1416Z" fill="white"/>
<path d="M164.089 29.4674C163.198 28.9092 162.175 28.5905 161.121 28.5427C158.176 28.5427 156.036 30.9541 156.036 34.7471C156.036 38.5401 158.401 41.0458 161.192 41.0458C162.218 41.0432 163.222 40.7553 164.09 40.2146L164.882 42.2869C163.745 43.0168 162.428 43.4217 161.074 43.4575C156.107 43.4575 152.974 39.641 152.974 34.7237C152.974 30.1698 156.084 26.1776 161.121 26.1776C162.514 26.2204 163.863 26.6684 165 27.4655L164.089 29.4674Z" fill="white"/>
</g>
<defs>
<clipPath id="clip0">
<rect width="165" height="48" fill="white"/>
</clipPath>
</defs>
</svg>

<svg xmlns="http://www.w3.org/2000/svg" xmlns:xlink="http://www.w3.org/1999/xlink" width="165" height="48" viewBox="0 0 165 48">
  <defs>
    <clipPath id="clip-path">
      <rect id="Rectangle_1" data-name="Rectangle 1" width="165" height="48" fill="#fff"/>
    </clipPath>
  </defs>
  <g id="national_geographic_logo" clip-path="url(#clip-path)">
    <path id="Path_3" data-name="Path 3" d="M0,48V0H33.832V48Zm28.937-4.835V4.835H4.872v38.33Z" fill="#fff"/>
    <path id="Path_4" data-name="Path 4" d="M56.313,21.53H54.219c-2.743-3.84-5.475-7.657-8.195-11.976V21.53H43.66V4.823h2.093c2.744,3.817,5.475,7.61,8.171,11.906V4.823h2.365V21.53Z" fill="#fff"/>
    <path id="Path_5" data-name="Path 5" d="M61.8,14.927c.674-2.189,1.348-4.226,1.951-6.8.674,2.576,1.277,4.613,1.9,6.8ZM62.911,4.835,57.069,21.53h2.507l1.466-4.554h5.085l1.324,4.554H70.68L65.347,4.823H62.982Z" fill="#fff"/>
    <path id="Path_6" data-name="Path 6" d="M73.424,21.53V7.071H68.989V4.835H80.72V7.071H76.286V21.53H73.424Z" fill="#fff"/>
    <path id="Path_7" data-name="Path 7" d="M81.7,21.53V4.823h2.874V21.53Z" fill="#fff"/>
    <path id="Path_8" data-name="Path 8" d="M93.48,19.4c-3.015,0-4.08-3.29-4.08-6.486S90.582,6.9,93.48,6.9s4.068,2.939,4.068,6.018S96.5,19.4,93.48,19.4Zm0,2.341c4.411,0,7.154-3.887,7.154-8.874,0-4.683-3.039-8.406-7.154-8.406s-7.154,3.723-7.154,8.406c0,5.057,2.744,8.956,7.154,8.956Z" fill="#fff"/>
    <path id="Path_9" data-name="Path 9" d="M115.014,21.53h-2.093c-2.744-3.84-5.475-7.657-8.195-11.976V21.53h-2.365V4.823h2.093c2.743,3.817,5.475,7.61,8.171,11.906V4.823h2.365V21.53Z" fill="#fff"/>
    <path id="Path_10" data-name="Path 10" d="M120.536,14.927c.674-2.189,1.349-4.226,1.951-6.8.674,2.576,1.277,4.613,1.9,6.8h-3.856Zm1.112-10.092-5.83,16.706h2.507l1.466-4.554h5.085l1.325,4.554h3.228L124.048,4.835h-2.4Z" fill="#fff"/>
    <path id="Path_11" data-name="Path 11" d="M130.268,4.823h2.874V19.282h5.712V21.53h-8.586Z" fill="#fff"/>
    <path id="Path_12" data-name="Path 12" d="M54.527,35.508v6.9a13.392,13.392,0,0,1-4.8,1.03c-4.967,0-8.1-3.817-8.1-8.733,0-4.554,3.134-8.546,8.2-8.546a7.262,7.262,0,0,1,4.092,1.288l-.934,1.979a6.313,6.313,0,0,0-3.086-.878c-3.087,0-5.18,2.412-5.18,6.2s2.365,6.3,4.9,6.3a4.291,4.291,0,0,0,2.022-.41V35.508Z" fill="#fff"/>
    <path id="Path_13" data-name="Path 13" d="M64.874,28.683H60.049V33.26h4.73v2.248h-4.73v5.4h5.688v2.248H57.152V26.424h7.71v2.248Z" fill="#fff"/>
    <path id="Path_14" data-name="Path 14" d="M73.79,41.046c-3.015,0-4.068-3.29-4.068-6.486s1.182-6.018,4.068-6.018,4.08,2.939,4.08,6.018S76.806,41.046,73.79,41.046Zm0,2.341c4.411,0,7.154-3.887,7.154-8.874,0-4.683-3.039-8.406-7.154-8.406s-7.154,3.723-7.154,8.406c0,5.034,2.743,8.921,7.154,8.921v-.047Z" fill="#fff"/>
    <path id="Path_15" data-name="Path 15" d="M94.84,35.508v6.9a13.394,13.394,0,0,1-4.8,1.03c-4.967,0-8.1-3.817-8.1-8.733,0-4.554,3.134-8.546,8.2-8.546a7.262,7.262,0,0,1,4.091,1.288l-.934,1.979a6.316,6.316,0,0,0-3.087-.878c-3.086,0-5.18,2.412-5.18,6.2s2.365,6.3,4.9,6.3a4.292,4.292,0,0,0,2.022-.41V35.508Z" fill="#fff"/>
    <path id="Path_16" data-name="Path 16" d="M100.386,28.683h1.277a2.428,2.428,0,0,1,2.673,2.693,2.945,2.945,0,0,1-2.558,3.3c-.062.008-.124.014-.186.018l-1.183.07V28.671Zm7.332,14.459-3.347-6.919a5.609,5.609,0,0,0,2.921-4.964c0-3.243-2-4.823-5.227-4.823H97.56V43.142h2.9v-6.3h1.3l2.719,6.3h3.241Z" fill="#fff"/>
    <path id="Path_17" data-name="Path 17" d="M112.483,36.539c.674-2.189,1.348-4.226,1.952-6.8.674,2.576,1.277,4.6,1.9,6.8h-3.855ZM113.6,26.424l-5.83,16.706h2.519l1.466-4.554h5.085l1.324,4.554h3.229l-5.381-16.706H113.6Z" fill="#fff"/>
    <path id="Path_18" data-name="Path 18" d="M126.839,26.424h-4.5V43.13h2.9V36.843h1.3a5.484,5.484,0,0,0,5.547-5.419c0-.055,0-.111,0-.166C132.031,28.015,130.032,26.424,126.839,26.424Zm-.414,8.253-1.182.07V28.671h1.3a2.441,2.441,0,0,1,2.655,2.2,2.4,2.4,0,0,1-.006.494,2.957,2.957,0,0,1-2.56,3.315q-.122.016-.243.022Z" fill="#fff"/>
    <path id="Path_19" data-name="Path 19" d="M145.441,43.142h-2.9V35.1h-6.007v8.043h-2.873V26.424h2.873v6.415h6.007V26.47h2.9V43.142Z" fill="#fff"/>
    <path id="Path_20" data-name="Path 20" d="M148.208,43.142V26.424h2.873V43.13h-2.873Z" fill="#fff"/>
    <path id="Path_21" data-name="Path 21" d="M164.089,29.467a6.113,6.113,0,0,0-2.968-.925c-2.945,0-5.085,2.411-5.085,6.2s2.365,6.3,5.156,6.3a5.508,5.508,0,0,0,2.9-.831l.792,2.072a7.411,7.411,0,0,1-3.808,1.171c-4.967,0-8.1-3.817-8.1-8.734,0-4.554,3.11-8.546,8.147-8.546A7.14,7.14,0,0,1,165,27.465Z" fill="#fff"/>
  </g>
</svg>
